static/img/kroki/c607f50a2940172849343f3d2c248b21.svg

<?xml version="1.0" encoding="us-ascii" standalone="no"?><svg xmlns="http://www.w3.org/2000/svg" xmlns:xlink="http://www.w3.org/1999/xlink" contentStyleType="text/css" height="980px" preserveAspectRatio="none" style="width:556px;height:980px;" version="1.1" viewBox="0 0 556 980" width="556px" zoomAndPan="magnify"><defs/><g><!--class azure_compute_dedicated_host_group--><g id="elem_azure_compute_dedicated_host_group"><rect codeLine="23" fill="#3D176E" height="179.2734" id="azure_compute_dedicated_host_group" rx="2.5" ry="2.5" style="stroke:#000D19;stroke-width:0.5;" width="542" x="7" y="660.14"/><ellipse cx="109.25" cy="680.0345" fill="#ADD1B2" rx="11" ry="11" style="stroke:#181818;stroke-width:1.0;"/><path d="M112.2188,685.6752 Q111.6406,685.972 111,686.1127 Q110.3594,686.2689 109.6563,686.2689 Q107.1563,686.2689 105.8281,684.6283 Q104.5156,682.972 104.5156,679.847 Q104.5156,676.722 105.8281,675.0658 Q107.1563,673.4095 109.6563,673.4095 Q110.3594,673.4095 111,673.5658 Q111.6563,673.722 112.2188,674.0189 L112.2188,676.7377 Q111.5938,676.1595 111,675.8939 Q110.4063,675.6127 109.7813,675.6127 Q108.4375,675.6127 107.75,676.6908 Q107.0625,677.7533 107.0625,679.847 Q107.0625,681.9408 107.75,683.0189 Q108.4375,684.0814 109.7813,684.0814 Q110.4063,684.0814 111,683.8158 Q111.5938,683.5345 112.2188,682.9564 L112.2188,685.6752 Z " fill="#000000"/><text fill="#D9B8FF" font-family="Helvetica" font-size="17" lengthAdjust="spacing" textLength="319" x="134.75" y="685.9198">azure_compute_dedicated_host_group</text><line style="stroke:#000D19;stroke-width:0.5;" x1="8" x2="548" y1="699.9291" y2="699.9291"/><text fill="#D9B8FF" font-family="sans-serif" font-size="14" font-weight="bold" lengthAdjust="spacing" textLength="207" x="18" y="721.9242">host_group_instance_view</text><text fill="#D9B8FF" font-family="sans-serif" font-size="14" lengthAdjust="spacing" textLength="313" x="225" y="721.9242">: azure_dedicated_host_group_instance_view</text><text fill="#D9B8FF" font-family="sans-serif" font-size="14" font-weight="bold" lengthAdjust="spacing" textLength="44" x="18" y="748.2211">hosts</text><text fill="#D9B8FF" font-family="sans-serif" font-size="14" lengthAdjust="spacing" textLength="58" x="62" y="748.2211">: string[]</text><text fill="#D9B8FF" font-family="sans-serif" font-size="14" font-weight="bold" lengthAdjust="spacing" textLength="224" x="18" y="774.5179">platform_fault_domain_count</text><text fill="#D9B8FF" font-family="sans-serif" font-size="14" lengthAdjust="spacing" textLength="44" x="242" y="774.5179">: int64</text><text fill="#D9B8FF" font-family="sans-serif" font-size="14" font-weight="bold" lengthAdjust="spacing" textLength="235" x="18" y="800.8148">support_automatic_placement</text><text fill="#D9B8FF" font-family="sans-serif" font-size="14" lengthAdjust="spacing" textLength="65" x="253" y="800.8148">: boolean</text><text fill="#D9B8FF" font-family="sans-serif" font-size="14" font-weight="bold" lengthAdjust="spacing" textLength="141" x="18" y="827.1117">ultra_ssd_enabled</text><text fill="#D9B8FF" font-family="sans-serif" font-size="14" lengthAdjust="spacing" textLength="65" x="159" y="827.1117">: boolean</text></g><!--class azure_dedicated_host_group_instance_view--><g id="elem_azure_dedicated_host_group_instance_view"><rect codeLine="30" fill="#3D176E" height="74.0859" id="azure_dedicated_host_group_instance_view" rx="2.5" ry="2.5" style="stroke:#000D19;stroke-width:0.5;" width="407" x="74.5" y="899.41"/><ellipse cx="89.5" cy="919.3045" fill="#ADD1B2" rx="11" ry="11" style="stroke:#181818;stroke-width:1.0;"/><path d="M92.4688,924.9452 Q91.8906,925.242 91.25,925.3827 Q90.6094,925.5389 89.9063,925.5389 Q87.4063,925.5389 86.0781,923.8983 Q84.7656,922.242 84.7656,919.117 Q84.7656,915.992 86.0781,914.3358 Q87.4063,912.6795 89.9063,912.6795 Q90.6094,912.6795 91.25,912.8358 Q91.9063,912.992 92.4688,913.2889 L92.4688,916.0077 Q91.8438,915.4295 91.25,915.1639 Q90.6563,914.8827 90.0313,914.8827 Q88.6875,914.8827 88,915.9608 Q87.3125,917.0233 87.3125,919.117 Q87.3125,921.2108 88,922.2889 Q88.6875,923.3514 90.0313,923.3514 Q90.6563,923.3514 91.25,923.0858 Q91.8438,922.8045 92.4688,922.2264 L92.4688,924.9452 Z " fill="#000000"/><text fill="#D9B8FF" font-family="Helvetica" font-size="17" lengthAdjust="spacing" textLength="365" x="108.5" y="925.1898">azure_dedicated_host_group_instance_view</text><line style="stroke:#000D19;stroke-width:0.5;" x1="75.5" x2="480.5" y1="939.1991" y2="939.1991"/><text fill="#D9B8FF" font-family="sans-serif" font-size="14" font-weight="bold" lengthAdjust="spacing" textLength="44" x="85.5" y="961.1942">hosts</text><text fill="#D9B8FF" font-family="sans-serif" font-size="14" lengthAdjust="spacing" textLength="58" x="129.5" y="961.1942">: string[]</text></g><!--class microsoft_resource--><g id="elem_microsoft_resource"><rect codeLine="33" fill="#3D176E" height="100.3828" id="microsoft_resource" rx="2.5" ry="2.5" style="stroke:#000D19;stroke-width:0.5;" width="214" x="171" y="438.76"/><ellipse cx="192.3" cy="458.6545" fill="#ADD1B2" rx="11" ry="11" style="stroke:#181818;stroke-width:1.0;"/><path d="M195.2688,464.2952 Q194.6906,464.592 194.05,464.7327 Q193.4094,464.8889 192.7063,464.8889 Q190.2063,464.8889 188.8781,463.2483 Q187.5656,461.592 187.5656,458.467 Q187.5656,455.342 188.8781,453.6858 Q190.2063,452.0295 192.7063,452.0295 Q193.4094,452.0295 194.05,452.1858 Q194.7063,452.342 195.2688,452.6389 L195.2688,455.3577 Q194.6438,454.7795 194.05,454.5139 Q193.4563,454.2327 192.8313,454.2327 Q191.4875,454.2327 190.8,455.3108 Q190.1125,456.3733 190.1125,458.467 Q190.1125,460.5608 190.8,461.6389 Q191.4875,462.7014 192.8313,462.7014 Q193.4563,462.7014 194.05,462.4358 Q194.6438,462.1545 195.2688,461.5764 L195.2688,464.2952 Z " fill="#000000"/><text fill="#D9B8FF" font-family="Helvetica" font-size="17" lengthAdjust="spacing" textLength="158" x="212.7" y="464.5398">microsoft_resource</text><line style="stroke:#000D19;stroke-width:0.5;" x1="172" x2="384" y1="478.5491" y2="478.5491"/><text fill="#D9B8FF" font-family="sans-serif" font-size="14" font-weight="bold" lengthAdjust="spacing" textLength="35" x="182" y="500.5442">etag</text><text fill="#D9B8FF" font-family="sans-serif" font-size="14" lengthAdjust="spacing" textLength="48" x="217" y="500.5442">: string</text><text fill="#D9B8FF" font-family="sans-serif" font-size="14" font-weight="bold" lengthAdjust="spacing" textLength="144" x="182" y="526.8411">provisioning_state</text><text fill="#D9B8FF" font-family="sans-serif" font-size="14" lengthAdjust="spacing" textLength="48" x="326" y="526.8411">: string</text></g><!--class resource--><g id="elem_resource"><rect codeLine="37" fill="#3D176E" height="310.7578" id="resource" rx="2.5" ry="2.5" style="stroke:#000D19;stroke-width:0.5;" width="227" x="164.5" y="7"/><ellipse cx="233.25" cy="26.8945" fill="#ADD1B2" rx="11" ry="11" style="stroke:#181818;stroke-width:1.0;"/><path d="M236.2188,32.5352 Q235.6406,32.832 235,32.9727 Q234.3594,33.1289 233.6563,33.1289 Q231.1563,33.1289 229.8281,31.4883 Q228.5156,29.832 228.5156,26.707 Q228.5156,23.582 229.8281,21.9258 Q231.1563,20.2695 233.6563,20.2695 Q234.3594,20.2695 235,20.4258 Q235.6563,20.582 236.2188,20.8789 L236.2188,23.5977 Q235.5938,23.0195 235,22.7539 Q234.4063,22.4727 233.7813,22.4727 Q232.4375,22.4727 231.75,23.5508 Q231.0625,24.6133 231.0625,26.707 Q231.0625,28.8008 231.75,29.8789 Q232.4375,30.9414 233.7813,30.9414 Q234.4063,30.9414 235,30.6758 Q235.5938,30.3945 236.2188,29.8164 L236.2188,32.5352 Z " fill="#000000"/><text fill="#D9B8FF" font-family="Helvetica" font-size="17" lengthAdjust="spacing" textLength="71" x="258.75" y="32.7798">resource</text><line style="stroke:#000D19;stroke-width:0.5;" x1="165.5" x2="390.5" y1="46.7891" y2="46.7891"/><text fill="#D9B8FF" font-family="sans-serif" font-size="14" font-weight="bold" lengthAdjust="spacing" textLength="29" x="175.5" y="68.7842">age</text><text fill="#D9B8FF" font-family="sans-serif" font-size="14" lengthAdjust="spacing" textLength="66" x="204.5" y="68.7842">: duration</text><text fill="#D9B8FF" font-family="sans-serif" font-size="14" font-weight="bold" lengthAdjust="spacing" textLength="43" x="175.5" y="95.0811">atime</text><text fill="#D9B8FF" font-family="sans-serif" font-size="14" lengthAdjust="spacing" textLength="70" x="218.5" y="95.0811">: datetime</text><text fill="#D9B8FF" font-family="sans-serif" font-size="14" font-weight="bold" lengthAdjust="spacing" textLength="43" x="175.5" y="121.3779">ctime</text><text fill="#D9B8FF" font-family="sans-serif" font-size="14" lengthAdjust="spacing" textLength="70" x="218.5" y="121.3779">: datetime</text><text fill="#D9B8FF" font-family="sans-serif" font-size="14" font-weight="bold" lengthAdjust="spacing" textLength="14" x="175.5" y="147.6748">id</text><text fill="#D9B8FF" font-family="sans-serif" font-size="14" lengthAdjust="spacing" textLength="48" x="189.5" y="147.6748">: string</text><text fill="#D9B8FF" font-family="sans-serif" font-size="14" font-weight="bold" lengthAdjust="spacing" textLength="33" x="175.5" y="173.9717">kind</text><text fill="#D9B8FF" font-family="sans-serif" font-size="14" lengthAdjust="spacing" textLength="48" x="208.5" y="173.9717">: string</text><text fill="#D9B8FF" font-family="sans-serif" font-size="14" font-weight="bold" lengthAdjust="spacing" textLength="90" x="175.5" y="200.2686">last_access</text><text fill="#D9B8FF" font-family="sans-serif" font-size="14" lengthAdjust="spacing" textLength="66" x="265.5" y="200.2686">: duration</text><text fill="#D9B8FF" font-family="sans-serif" font-size="14" font-weight="bold" lengthAdjust="spacing" textLength="90" x="175.5" y="226.5654">last_update</text><text fill="#D9B8FF" font-family="sans-serif" font-size="14" lengthAdjust="spacing" textLength="66" x="265.5" y="226.5654">: duration</text><text fill="#D9B8FF" font-family="sans-serif" font-size="14" font-weight="bold" lengthAdjust="spacing" textLength="48" x="175.5" y="252.8623">mtime</text><text fill="#D9B8FF" font-family="sans-serif" font-size="14" lengthAdjust="spacing" textLength="70" x="223.5" y="252.8623">: datetime</text><text fill="#D9B8FF" font-family="sans-serif" font-size="14" font-weight="bold" lengthAdjust="spacing" textLength="43" x="175.5" y="279.1592">name</text><text fill="#D9B8FF" font-family="sans-serif" font-size="14" lengthAdjust="spacing" textLength="48" x="218.5" y="279.1592">: string</text><text fill="#D9B8FF" font-family="sans-serif" font-size="14" font-weight="bold" lengthAdjust="spacing" textLength="34" x="175.5" y="305.4561">tags</text><text fill="#D9B8FF" font-family="sans-serif" font-size="14" lengthAdjust="spacing" textLength="171" x="209.5" y="305.4561">: dictionary[string, string]</text></g><!--link azure_compute_dedicated_host_group to azure_dedicated_host_group_instance_view--><g id="link_azure_compute_dedicated_host_group_azure_dedicated_host_group_instance_view"><path codeLine="49" d="M278,839.87 C278,860.9 278,876.16 278,893.27 " fill="none" id="azure_compute_dedicated_host_group-to-azure_dedicated_host_group_instance_view" style="stroke:#FFAF37;stroke-width:2.0;"/><polygon fill="#FFAF37" points="278,899.27,282,890.27,278,894.27,274,890.27,278,899.27" style="stroke:#FFAF37;stroke-width:2.0;"/></g><!--reverse link microsoft_resource to azure_compute_dedicated_host_group--><g id="link_microsoft_resource_azure_compute_dedicated_host_group"><path codeLine="50" d="M278,557.55 C278,591.53 278,619.56 278,659.79 " fill="none" id="microsoft_resource-backto-azure_compute_dedicated_host_group" style="stroke:#FFAF37;stroke-width:2.0;"/><polygon fill="none" points="278,539.55,272,557.55,284,557.55,278,539.55" style="stroke:#FFAF37;stroke-width:2.0;"/></g><!--reverse link resource to microsoft_resource--><g id="link_resource_microsoft_resource"><path codeLine="51" d="M278,336.06 C278,379.65 278,405.98 278,438.42 " fill="none" id="resource-backto-microsoft_resource" style="stroke:#FFAF37;stroke-width:2.0;"/><polygon fill="none" points="278,318.06,272,336.06,284,336.06,278,318.06" style="stroke:#FFAF37;stroke-width:2.0;"/></g><!--SRC=[ZPHDRnf138Rl_8gLSaD52aqRGbLLIf6gzX9LJMzHD38pNXYnCxFoU46axN-lXuLaFqZWnAxz-FLhhyNI6ipGbRpD7BevKXp4bVKb4BZibYXiPg48b5taEUHNasxoM_1y4hW3XzbtBDR8LaEN-BsqUkKnnknz8_KLz6f1eVAcbcS27oM5dXlKh80ORvd9pYl6XXapdT_aUPViYbvScV7a6djO88EqHoulByrusaLEjdfpxcVYtZvXDcukxIumzcpsMkoeDrqcec6oD-WX_wh7ds2CzOliOoFsg_P47gaLlr-22Pj4vr34Pfl8I1XuM-AiDnLERqm-EGh_U0qUwBIw39ugGgM3A-MpAuD6l3CQjGoHLQehip-3uV3bLLaV6Rn6jRQu6Gu_xIMEbRRPlKnCDL4EpIyU7YLM5i1v8ATog0fM9ZYmNXnLdXDfFLz_42nMPHc85LGiXAnOIQ56XpKs3w50y0AA286AqIZqC2_GDDF_McEVzlmyVDlrGSPPJI66d1LX31Lft1KWm-A5JpDIMDjeWvTN9VACZVH1h2K1YnrYAf9PGvfBVbqTa_BqB35z96PDgxNSH3iWlMIBMil_HAV3BbELPc-laN57-dXms1AMeMj5grCPqFQXphtRCsblPzpRQFJb_9iwyWK-_nsDHcSSzg1JqPSQ_0S0]--></g></svg>

<svg xmlns="http://www.w3.org/2000/svg" width="556" height="980" viewBox="0 0 556 980"><rect width="542" height="179.273" x="7" y="660.14" fill="#3D176E" rx="2.5" ry="2.5" style="stroke:#000d19;stroke-width:.5"/><circle cx="109.25" cy="680.034" r="11" fill="#ADD1B2" style="stroke:#181818;stroke-width:1"/><path d="M112.219 685.675q-.578.297-1.219.438-.64.156-1.344.156-2.5 0-3.828-1.64-1.312-1.657-1.312-4.782t1.312-4.781q1.328-1.657 3.828-1.657.703 0 1.344.157.656.156 1.219.453v2.719q-.625-.579-1.219-.844-.594-.281-1.219-.281-1.344 0-2.031 1.078-.687 1.062-.687 3.156t.687 3.172q.688 1.062 2.031 1.062.625 0 1.219-.265.594-.282 1.219-.86z"/><text x="134.75" y="685.92" fill="#D9B8FF" font-family="Helvetica" font-size="17" textLength="319">azure_compute_dedicated_host_group</text><path d="M8 699.929h540" style="stroke:#000d19;stroke-width:.5"/><text x="18" y="721.924" fill="#D9B8FF" font-family="sans-serif" font-size="14" font-weight="bold" textLength="207">host_group_instance_view</text><text x="225" y="721.924" fill="#D9B8FF" font-family="sans-serif" font-size="14" textLength="313">: azure_dedicated_host_group_instance_view</text><text x="18" y="748.221" fill="#D9B8FF" font-family="sans-serif" font-size="14" font-weight="bold" textLength="44">hosts</text><text x="62" y="748.221" fill="#D9B8FF" font-family="sans-serif" font-size="14" textLength="58">: string[]</text><text x="18" y="774.518" fill="#D9B8FF" font-family="sans-serif" font-size="14" font-weight="bold" textLength="224">platform_fault_domain_count</text><text x="242" y="774.518" fill="#D9B8FF" font-family="sans-serif" font-size="14" textLength="44">: int64</text><text x="18" y="800.815" fill="#D9B8FF" font-family="sans-serif" font-size="14" font-weight="bold" textLength="235">support_automatic_placement</text><text x="253" y="800.815" fill="#D9B8FF" font-family="sans-serif" font-size="14" textLength="65">: boolean</text><text x="18" y="827.112" fill="#D9B8FF" font-family="sans-serif" font-size="14" font-weight="bold" textLength="141">ultra_ssd_enabled</text><text x="159" y="827.112" fill="#D9B8FF" font-family="sans-serif" font-size="14" textLength="65">: boolean</text><rect width="407" height="74.086" x="74.5" y="899.41" fill="#3D176E" rx="2.5" ry="2.5" style="stroke:#000d19;stroke-width:.5"/><circle cx="89.5" cy="919.304" r="11" fill="#ADD1B2" style="stroke:#181818;stroke-width:1"/><path d="M92.469 924.945q-.578.297-1.219.438-.64.156-1.344.156-2.5 0-3.828-1.64-1.312-1.657-1.312-4.782t1.312-4.781q1.328-1.657 3.828-1.657.703 0 1.344.157.656.156 1.219.453v2.719q-.625-.579-1.219-.844-.594-.281-1.219-.281-1.344 0-2.031 1.078-.687 1.062-.687 3.156t.687 3.172q.688 1.062 2.031 1.062.625 0 1.219-.265.594-.282 1.219-.86z"/><text x="108.5" y="925.19" fill="#D9B8FF" font-family="Helvetica" font-size="17" textLength="365">azure_dedicated_host_group_instance_view</text><path d="M75.5 939.199h405" style="stroke:#000d19;stroke-width:.5"/><text x="85.5" y="961.194" fill="#D9B8FF" font-family="sans-serif" font-size="14" font-weight="bold" textLength="44">hosts</text><text x="129.5" y="961.194" fill="#D9B8FF" font-family="sans-serif" font-size="14" textLength="58">: string[]</text><rect width="214" height="100.383" x="171" y="438.76" fill="#3D176E" rx="2.5" ry="2.5" style="stroke:#000d19;stroke-width:.5"/><circle cx="192.3" cy="458.654" r="11" fill="#ADD1B2" style="stroke:#181818;stroke-width:1"/><path d="M195.269 464.295q-.578.297-1.219.438-.64.156-1.344.156-2.5 0-3.828-1.64-1.312-1.657-1.312-4.782t1.312-4.781q1.328-1.656 3.828-1.656.703 0 1.344.156.656.156 1.219.453v2.719q-.625-.579-1.219-.844-.594-.281-1.219-.281-1.343 0-2.031 1.078-.687 1.062-.687 3.156t.687 3.172q.688 1.062 2.031 1.062.625 0 1.219-.265.594-.281 1.219-.86z"/><text x="212.7" y="464.54" fill="#D9B8FF" font-family="Helvetica" font-size="17" textLength="158">microsoft_resource</text><path d="M172 478.549h212" style="stroke:#000d19;stroke-width:.5"/><text x="182" y="500.544" fill="#D9B8FF" font-family="sans-serif" font-size="14" font-weight="bold" textLength="35">etag</text><text x="217" y="500.544" fill="#D9B8FF" font-family="sans-serif" font-size="14" textLength="48">: string</text><text x="182" y="526.841" fill="#D9B8FF" font-family="sans-serif" font-size="14" font-weight="bold" textLength="144">provisioning_state</text><text x="326" y="526.841" fill="#D9B8FF" font-family="sans-serif" font-size="14" textLength="48">: string</text><rect width="227" height="310.758" x="164.5" y="7" fill="#3D176E" rx="2.5" ry="2.5" style="stroke:#000d19;stroke-width:.5"/><circle cx="233.25" cy="26.895" r="11" fill="#ADD1B2" style="stroke:#181818;stroke-width:1"/><path d="M236.219 32.535q-.578.297-1.219.438-.64.156-1.344.156-2.5 0-3.828-1.64-1.312-1.657-1.312-4.782t1.312-4.781q1.328-1.656 3.828-1.656.703 0 1.344.156.656.156 1.219.453v2.719q-.625-.578-1.219-.844-.594-.281-1.219-.281-1.344 0-2.031 1.078-.687 1.062-.687 3.156t.687 3.172q.688 1.062 2.031 1.062.625 0 1.219-.265.594-.281 1.219-.86z"/><text x="258.75" y="32.78" fill="#D9B8FF" font-family="Helvetica" font-size="17" textLength="71">resource</text><path d="M165.5 46.789h225" style="stroke:#000d19;stroke-width:.5"/><text x="175.5" y="68.784" fill="#D9B8FF" font-family="sans-serif" font-size="14" font-weight="bold" textLength="29">age</text><text x="204.5" y="68.784" fill="#D9B8FF" font-family="sans-serif" font-size="14" textLength="66">: duration</text><text x="175.5" y="95.081" fill="#D9B8FF" font-family="sans-serif" font-size="14" font-weight="bold" textLength="43">atime</text><text x="218.5" y="95.081" fill="#D9B8FF" font-family="sans-serif" font-size="14" textLength="70">: datetime</text><text x="175.5" y="121.378" fill="#D9B8FF" font-family="sans-serif" font-size="14" font-weight="bold" textLength="43">ctime</text><text x="218.5" y="121.378" fill="#D9B8FF" font-family="sans-serif" font-size="14" textLength="70">: datetime</text><text x="175.5" y="147.675" fill="#D9B8FF" font-family="sans-serif" font-size="14" font-weight="bold" textLength="14">id</text><text x="189.5" y="147.675" fill="#D9B8FF" font-family="sans-serif" font-size="14" textLength="48">: string</text><text x="175.5" y="173.972" fill="#D9B8FF" font-family="sans-serif" font-size="14" font-weight="bold" textLength="33">kind</text><text x="208.5" y="173.972" fill="#D9B8FF" font-family="sans-serif" font-size="14" textLength="48">: string</text><text x="175.5" y="200.269" fill="#D9B8FF" font-family="sans-serif" font-size="14" font-weight="bold" textLength="90">last_access</text><text x="265.5" y="200.269" fill="#D9B8FF" font-family="sans-serif" font-size="14" textLength="66">: duration</text><text x="175.5" y="226.565" fill="#D9B8FF" font-family="sans-serif" font-size="14" font-weight="bold" textLength="90">last_update</text><text x="265.5" y="226.565" fill="#D9B8FF" font-family="sans-serif" font-size="14" textLength="66">: duration</text><text x="175.5" y="252.862" fill="#D9B8FF" font-family="sans-serif" font-size="14" font-weight="bold" textLength="48">mtime</text><text x="223.5" y="252.862" fill="#D9B8FF" font-family="sans-serif" font-size="14" textLength="70">: datetime</text><text x="175.5" y="279.159" fill="#D9B8FF" font-family="sans-serif" font-size="14" font-weight="bold" textLength="43">name</text><text x="218.5" y="279.159" fill="#D9B8FF" font-family="sans-serif" font-size="14" textLength="48">: string</text><text x="175.5" y="305.456" fill="#D9B8FF" font-family="sans-serif" font-size="14" font-weight="bold" textLength="34">tags</text><text x="209.5" y="305.456" fill="#D9B8FF" font-family="sans-serif" font-size="14" textLength="171">: dictionary[string, string]</text><path fill="none" d="M278 839.87v53.4" style="stroke:#ffaf37;stroke-width:2"/><path fill="#FFAF37" d="m278 899.27 4-9-4 4-4-4z" style="stroke:#ffaf37;stroke-width:2"/><path fill="none" d="M278 557.55v102.24m0-120.24-6 18h12zm0-203.49v102.36m0-120.36-6 18h12z" style="stroke:#ffaf37;stroke-width:2"/></svg>
